!!!ONR: No. 32
!! From Harold Courlander, "Haiti Singing"
!! Chapel Hill: University of North Carolina Press, 1939
!! Copyright University of North Carolina Press
!!!ENC: D. Huron
**kern
*clefG2
*k[f#c#]
*M2/4
=1-
8r
8aa
8bb
8aa
=
8ff#
8ee
8ff#
8aa
=
4ee
12cc#
12ee
12ff#
=
4aa
12ee
12ee
12ee
=
4cc#
12b
12cc#
12cc#
=
[2a
=
4a]
8cc#
8ee
=
8ff#
8ee
4b
=
8b
8cc#
12ee
12ee
[12ee
=
4ee]
8cc#
8ee
=
8ff#
8ee
4b
=
8bb
8aa
8ff#
[8ee
=
8ee]
8cc#
8ee
8ff#
=
8aa
8ee
8ee
8ee
=
4cc#
(12b
12cc#)
[12a
=
2a]
==
*-
